X:1
T:Greek Anthem
T:Ύμνος εις την Ελευθερίαν
T:Διονύσιος Σολωμός
T:Anthem of Greece
%%score { ( 1 3 ) | ( 2 4 ) }
L:1/8
Q:1/4=114
M:3/4
K:Eb
V:1 treble nm="Piano" snm="Pno."
V:3 treble 
V:2 bass 
V:4 bass 
V:1
!f!"^Moderato" G>A | B7/2 A/ G>A | B2 G z A>B | c7/2 c/ d>B | e2 z2 [DF]>[EG] | %5
 [FA]7/2 [EG]/ [DF]>[EG] | ([FA]2 [EG]) z B>B | [Fd]7/2 [Ac]/ [GB]>[FA] | [EG]2!mf! z2 G>G | %9
 [Ec]7/2 [Ge]/ d>=B | (c2 G) z G>G | [Ec]7/2 [Ge]/ d>=B | [EGc]2 z2!p! _B>B | %13
"_cresc." (([FAB]2 [FAd])) z B>B | (([EB]2 [Ee])) z B>B | (([FAB]2 [FAd]))!<(! z/ B/ c>d!<)! | %16
 ([Ge]2 E)!f! z [Ge]>[Bd] | ((!>![EBd]2 [EAc])) z [Ac]>[GB] | ((!>![CGB]2 [CFA]))!p! z [Ac]>[Ac] | %19
 [GB]7/2 [EG]/ [FA]>[DF] | ([FA]2 [EG])!f! z ([Ge]>[Bd]) | ((!>![EBd]2 [EAc])) z [Ac]>[GB] | %22
 (([CGB]2 [CFA]))!p! z [Ac]>[Ac] | [GB]7/2 [EG]/ [FA]>[A,F] | [G,E]6 |] %25
V:2
 [E,,E,]>[F,,F,] | [G,,G,]7/2 [F,,F,]/ [E,,E,]>[F,,F,] | [G,,G,]2 [E,,E,] z [F,,F,]>[G,,G,] | %3
 [A,,A,]7/2 [G,,G,]/ [F,,F,]2 | ([E,,E,]3 G,, B,,) z | B,,,2 B,,2 B,,,2 | B,,2 B,,,2 B,,2 | %7
 B,,,2 B,,2 B,,,2 | E,,2 z4 | [C,C]4 [G,,G,]2 | C,2 E,2 G,2 | [C,C]4 [G,,G,]2 | %12
 [C,C]2 z3/2 [E,E]/ [D,D]>[C,C] | [B,,B,]7/2 [C,C]/ [B,,B,]>[A,,A,] | %14
 [G,,G,]7/2 [B,,B,]/ [A,,A,]>[G,,G,] | [F,,F,]7/2 [A,,A,]/ [G,,G,]>[F,,F,] | [E,,E,]2 z4 | %17
 [A,,A,]4 [C,,C,]2 | [F,,F,]4 [A,,A,]2 | [B,,B,]4 [B,,B,]2 | E,(E, B,,G,, E,,) z | %21
 [A,,A,]4 [C,,C,]2 | [F,,F,]4 [A,,A,]2 | [B,,B,]4 [B,,,B,,]2 | [E,,E,]6 |] %25
V:3
 x2 | E4 x2 | E6 | E4 A2 | G2 x4 | x6 | x6 | x6 | x6 | x4 [FG]2 | (([EG]2 E)) x3 | x4 F2 | x6 | %13
 x6 | x6 | x6 | x6 | x6 | x6 | x6 | x6 | x6 | x6 | x6 | x6 |] %25
V:4
 x2 | x6 | x6 | x6 | x6 | x6 | x6 | x6 | x6 | x6 | C6 | x6 | x6 | x6 | x6 | x6 | x6 | x6 | x6 | %19
 x6 | x6 | x6 | x6 | x6 | x6 |] %25

